X:1
T: Lady Mary Osborn's Reel
C:R. Mackintosh
R:Reel
Q: 232
K:G
M:4/4
L:1/8
|:d|g2 dB GB dB|cA a^g ae af|g2 dB GB dB|cA d1/2c1/2B1/2A1/2 BG Gd|
g2 dB GB dB|cA a^g ae af|g2 dB GB dB|cA d1/2c1/2B1/2A1/2 BG Gd|
B1/2A1/2G DG BG dB|cA ed ce af|gd eg dg Bg|ce dc BG Gc|
B1/2A1/2G DG BG dB|cA ed ce af|gb af gd eB|cA d1/2c1/2B1/2A1/2 BG G:|
